src/images/loan_icon.svg

<svg width="25" height="25" viewBox="0 0 25 25" fill="none" xmlns="http://www.w3.org/2000/svg">
<g clip-path="url(#clip0_20_701)">
<path d="M14.4923 15.3372C18.6873 15.3372 22.1002 11.8971 22.1002 7.66863C22.1002 3.44019 18.6873 0 14.4923 0C10.2974 0 6.88451 3.44014 6.88451 7.66858C6.88451 11.897 10.2974 15.3372 14.4923 15.3372ZM12.0477 10.0616C12.269 9.72331 12.7227 9.62835 13.061 9.84975C13.5539 10.1722 13.7399 10.2019 14.3903 10.1973C15.0252 10.1931 15.3936 9.71994 15.4671 9.28202C15.503 9.06901 15.5167 8.54886 14.872 8.32097C14.1159 8.05365 13.342 7.74812 12.8037 7.32586C12.2653 6.9036 12.0188 6.17464 12.1604 5.42358C12.3138 4.60936 12.8818 3.96121 13.6427 3.73205C13.6496 3.73 13.6563 3.72835 13.6632 3.7263V3.44882C13.6632 3.04457 13.9909 2.71684 14.3952 2.71684C14.7994 2.71684 15.1272 3.04457 15.1272 3.44882V3.68018C15.6243 3.79886 15.9715 4.02631 16.1125 4.13167C16.4363 4.37376 16.5026 4.83242 16.2605 5.15625C16.0185 5.48009 15.5598 5.54635 15.236 5.30421C15.086 5.19207 14.6714 4.95101 14.0649 5.13376C13.7106 5.24053 13.6187 5.59013 13.599 5.6947C13.5603 5.9002 13.6037 6.09281 13.7072 6.17391C14.0803 6.46661 14.7521 6.72578 15.3599 6.94064C16.4808 7.33684 17.1041 8.37529 16.9109 9.5247C16.816 10.0887 16.5323 10.6119 16.1119 10.9981C15.8256 11.2613 15.4923 11.4488 15.1272 11.556V11.8883C15.1272 12.2926 14.7994 12.6203 14.3952 12.6203C13.9909 12.6203 13.6632 12.2926 13.6632 11.8883V11.629C13.1899 11.5716 12.7926 11.4236 12.2595 11.0748C11.9213 10.8535 11.8264 10.3999 12.0477 10.0616Z" fill="#B1B1B1"/>
<path d="M2.77447 17.7967H1.10544C0.701189 17.7967 0.373455 18.1245 0.373455 18.5287V24.267C0.373455 24.6712 0.701189 24.999 1.10544 24.999H2.77451V17.7967H2.77447Z" fill="#B1B1B1"/>
<path d="M24.4119 17.7456C23.0399 16.3736 20.8075 16.3736 19.4356 17.7456L17.2429 19.9383L16.3442 20.8371C15.981 21.2003 15.4883 21.4044 14.9746 21.4044H10.6045C10.2098 21.4044 9.87014 21.101 9.85155 20.7068C9.83174 20.2858 10.1671 19.9383 10.5837 19.9383H15.0257C15.9188 19.9383 16.6935 19.3025 16.847 18.4227C16.8823 18.2206 16.9007 18.0129 16.9007 17.8009C16.9007 17.3959 16.5726 17.0673 16.1677 17.0673H13.7337C12.9383 17.0673 12.1744 16.7065 11.3657 16.3244C10.5174 15.9237 9.6403 15.5094 8.61469 15.4411C7.71766 15.3814 6.81859 15.4796 5.94231 15.7326C5.00405 16.0036 4.32959 16.8371 4.24781 17.7996C4.24468 17.7993 4.24151 17.7993 4.23834 17.7991V24.9965L16.8493 25C17.7164 25 18.5316 24.6623 19.1448 24.0491L24.4117 18.7822C24.6981 18.4961 24.6981 18.0319 24.4119 17.7456Z" fill="#B1B1B1"/>
</g>
<defs>
<clipPath id="clip0_20_701">
<rect width="25" height="25" fill="white"/>
</clipPath>
</defs>
</svg>

<svg xmlns="http://www.w3.org/2000/svg" width="25" height="25" fill="none"><g fill="#B1B1B1" clip-path="url(#a)"><path d="M14.492 15.337c4.195 0 7.608-3.44 7.608-7.668C22.1 3.44 18.687 0 14.492 0S6.885 3.44 6.885 7.669c0 4.228 3.412 7.668 7.607 7.668Zm-2.444-5.275a.732.732 0 0 1 1.013-.212c.493.322.679.352 1.33.347.634-.004 1.003-.477 1.076-.915.036-.213.05-.733-.595-.961-.756-.267-1.53-.573-2.068-.995-.539-.422-.785-1.151-.644-1.902.154-.815.722-1.463 1.483-1.692l.02-.006V3.45a.732.732 0 1 1 1.464 0v.231c.497.119.845.346.986.452a.732.732 0 1 1-.877 1.172c-.15-.112-.565-.353-1.171-.17-.354.107-.446.456-.466.56-.039.206.005.399.108.48.373.293 1.045.552 1.653.767 1.12.396 1.744 1.434 1.55 2.584a2.594 2.594 0 0 1-.798 1.473c-.286.263-.62.45-.985.558v.332a.732.732 0 0 1-1.464 0v-.259c-.473-.057-.87-.205-1.404-.554a.732.732 0 0 1-.211-1.013ZM2.774 17.797H1.105a.732.732 0 0 0-.732.732v5.738c0 .404.328.732.732.732h1.67v-7.202ZM24.412 17.746a3.523 3.523 0 0 0-4.976 0l-2.193 2.192-.899.9a1.937 1.937 0 0 1-1.37.566h-4.37a.747.747 0 0 1-.752-.697.733.733 0 0 1 .732-.769h4.442c.893 0 1.668-.636 1.821-1.515.035-.202.054-.41.054-.622a.733.733 0 0 0-.733-.734h-2.434c-.796 0-1.56-.36-2.368-.743-.849-.4-1.726-.815-2.751-.883a7.752 7.752 0 0 0-2.673.292A2.37 2.37 0 0 0 4.248 17.8h-.01v7.197L16.85 25c.867 0 1.683-.338 2.296-.95l5.267-5.268a.733.733 0 0 0 0-1.036Z"/></g><defs><clipPath id="a"><path fill="#fff" d="M0 0h25v25H0z"/></clipPath></defs></svg>
